svg/calendar_remove.svg

<svg xmlns="http://www.w3.org/2000/svg" viewBox="0 0 24 24"><path d="M19 19H5V8h14m0-5h-1V1h-2v2H8V1H6v2H5a2 2 0 0 0-2 2v14a2 2 0 0 0 2 2h14a2 2 0 0 0 2-2V5a2 2 0 0 0-2-2M9.31 17l2.44-2.44L14.19 17l1.06-1.06-2.44-2.44 2.44-2.44L14.19 10l-2.44 2.44L9.31 10l-1.06 1.06 2.44 2.44-2.44 2.44z"/></svg>

<?xml version="1.0" encoding="UTF-8"?><!DOCTYPE svg PUBLIC "-//W3C//DTD SVG 1.1//EN" "http://www.w3.org/Graphics/SVG/1.1/DTD/svg11.dtd"><svg xmlns="http://www.w3.org/2000/svg" xmlns:xlink="http://www.w3.org/1999/xlink" version="1.1" id="mdi-calendar-remove" width="24" height="24" viewBox="0 0 24 24"><path d="M19,19H5V8H19M19,3H18V1H16V3H8V1H6V3H5C3.89,3 3,3.9 3,5V19A2,2 0 0,0 5,21H19A2,2 0 0,0 21,19V5A2,2 0 0,0 19,3M9.31,17L11.75,14.56L14.19,17L15.25,15.94L12.81,13.5L15.25,11.06L14.19,10L11.75,12.44L9.31,10L8.25,11.06L10.69,13.5L8.25,15.94L9.31,17Z" /></svg>
